packages/web/src/assets/doc-page-icons/shortcut-icons/ComponentOn.svg

<svg fill="none" height="40" viewBox="0 0 40 40" width="40" xmlns="http://www.w3.org/2000/svg"><g stroke-linecap="round" stroke-linejoin="round" stroke-width="2.5"><path d="m14.5833 1.25h-11.66663c-.92048 0-1.66667.74619-1.66667 1.66667v11.66663c0 .9205.74619 1.6667 1.66667 1.6667h11.66663c.9205 0 1.6667-.7462 1.6667-1.6667v-11.66663c0-.92048-.7462-1.66667-1.6667-1.66667z" stroke="var(--e-color-icon-stroke-1)"/><path d="m31.25 16.25c4.1421 0 7.5-3.3579 7.5-7.5 0-4.14214-3.3579-7.5-7.5-7.5s-7.5 3.35786-7.5 7.5c0 4.1421 3.3579 7.5 7.5 7.5z" stroke="var(--e-color-icon-positive)"/><g stroke="var(--e-color-icon-stroke-1)"><path d="m31.3098 23.2952c-.1247-.2397-.3128-.4406-.5438-.5809-.231-.1402-.496-.2143-.7662-.2143s-.5352.0741-.7662.2143c-.231.1403-.4191.3412-.5438.5809l-7.2283 13.0116c-.1368.2489-.2094.5279-.2115.8119-.002.284.0667.564.1998.8148.1255.2432.3148.4477.5476.5916s.5004.2217.7741.2251h14.4566c.2737-.0034.5413-.0812.7741-.2251s.4221-.3484.5476-.5916c.1331-.2508.2018-.5308.1998-.8148-.0021-.284-.0747-.563-.2115-.8119z"/><path d="m9.75123 21.7232c-.12166-.1474-.27439-.2661-.44727-.3475-.17288-.0815-.36163-.1237-.55273-.1237-.19111 0-.37986.0422-.55274.1237-.17288.0814-.32561.2001-.44726.3475l-6.18334 7.395c-.20605.2476-.31887.5595-.31887.8817 0 .3221.11282.634.31887.8816l6.18 7.395c.12166.1474.27439.2661.44727.3475.17288.0815.36162.1237.55273.1237s.37986-.0422.55274-.1237c.17287-.0814.3256-.2001.44726-.3475l6.18001-7.395c.206-.2476.3189-.5595.3189-.8816 0-.3222-.1129-.6341-.3189-.8817z"/></g></g></svg>

<svg width="40" height="40" viewBox="0 0 40 40" fill="none" xmlns="http://www.w3.org/2000/svg">
<path d="M14.5833 1.25H2.91667C1.99619 1.25 1.25 1.99619 1.25 2.91667V14.5833C1.25 15.5038 1.99619 16.25 2.91667 16.25H14.5833C15.5038 16.25 16.25 15.5038 16.25 14.5833V2.91667C16.25 1.99619 15.5038 1.25 14.5833 1.25Z" stroke="black" stroke-width="2.5" stroke-linecap="round" stroke-linejoin="round"/>
<path d="M31.25 16.25C35.3921 16.25 38.75 12.8921 38.75 8.75C38.75 4.60786 35.3921 1.25 31.25 1.25C27.1079 1.25 23.75 4.60786 23.75 8.75C23.75 12.8921 27.1079 16.25 31.25 16.25Z" stroke="#29D305" stroke-width="2.5" stroke-linecap="round" stroke-linejoin="round"/>
<path d="M31.3098 23.2952C31.1851 23.0555 30.997 22.8546 30.766 22.7143C30.535 22.5741 30.27 22.5 29.9998 22.5C29.7296 22.5 29.4646 22.5741 29.2336 22.7143C29.0026 22.8546 28.8145 23.0555 28.6898 23.2952L21.4615 36.3068C21.3247 36.5557 21.2521 36.8347 21.25 37.1187C21.248 37.4027 21.3167 37.6827 21.4498 37.9335C21.5753 38.1767 21.7646 38.3812 21.9974 38.5251C22.2302 38.669 22.4978 38.7468 22.7715 38.7502H37.2281C37.5018 38.7468 37.7694 38.669 38.0022 38.5251C38.235 38.3812 38.4243 38.1767 38.5498 37.9335C38.6829 37.6827 38.7516 37.4027 38.7496 37.1187C38.7475 36.8347 38.6749 36.5557 38.5381 36.3068L31.3098 23.2952Z" stroke="black" stroke-width="2.5" stroke-linecap="round" stroke-linejoin="round"/>
<path d="M9.75123 21.7232C9.62957 21.5758 9.47684 21.4571 9.30396 21.3757C9.13108 21.2942 8.94233 21.252 8.75123 21.252C8.56012 21.252 8.37137 21.2942 8.19849 21.3757C8.02561 21.4571 7.87288 21.5758 7.75123 21.7232L1.56789 29.1182C1.36184 29.3658 1.24902 29.6777 1.24902 29.9999C1.24902 30.322 1.36184 30.6339 1.56789 30.8815L7.74789 38.2765C7.86955 38.4239 8.02228 38.5426 8.19516 38.624C8.36804 38.7055 8.55678 38.7477 8.74789 38.7477C8.939 38.7477 9.12775 38.7055 9.30063 38.624C9.4735 38.5426 9.62623 38.4239 9.74789 38.2765L15.9279 30.8815C16.1339 30.6339 16.2468 30.322 16.2468 29.9999C16.2468 29.6777 16.1339 29.3658 15.9279 29.1182L9.75123 21.7232Z" stroke="black" stroke-width="2.5" stroke-linecap="round" stroke-linejoin="round"/>
</svg>
